X:707
T: AM MONTAG DA FAENGT DIE WOCHEN AN
N: E2134
O: Europa, Mitteleuropa, Deutschland, Baden, Freiburg; Horben
R: geistliches Lied, Curiosum, Moral
M: 4/4
L: 1/8
K: Eb
E,G, | B,2B,2B,EEC | B,2B,2B,2z
G, | G,F,F,F,F,CB,A, | G,2G,2G,2z2 |
F,3G,A,2F,2 | G,3A,B,2z2 |
E3FG2G2 | F4E2

@@@ Tune index: 5391
